Numix-Light-GalliumOS/16/status/network-transmit.svg

<?xml version="1.0" encoding="UTF-8" standalone="no"?>
<svg
   xmlns:dc="http://purl.org/dc/elements/1.1/"
   xmlns:cc="http://creativecommons.org/ns#"
   xmlns:rdf="http://www.w3.org/1999/02/22-rdf-syntax-ns#"
   xmlns:svg="http://www.w3.org/2000/svg"
   xmlns="http://www.w3.org/2000/svg"
   xmlns:sodipodi="http://sodipodi.sourceforge.net/DTD/sodipodi-0.dtd"
   xmlns:inkscape="http://www.inkscape.org/namespaces/inkscape"
   width="16"
   height="16"
   viewBox="0 0 16 16"
   id="svg3009"
   version="1.1"
   inkscape:version="0.91 r"
   sodipodi:docname="network-transmit.svg">
  <metadata
     id="metadata3039">
    <rdf:RDF>
      <cc:Work
         rdf:about="">
        <dc:format>image/svg+xml</dc:format>
        <dc:type
           rdf:resource="http://purl.org/dc/dcmitype/StillImage" />
      </cc:Work>
    </rdf:RDF>
  </metadata>
  <sodipodi:namedview
     pagecolor="#ffffff"
     bordercolor="#666666"
     borderopacity="1"
     objecttolerance="10"
     gridtolerance="10"
     guidetolerance="10"
     inkscape:pageopacity="0"
     inkscape:pageshadow="2"
     inkscape:window-width="1280"
     inkscape:window-height="998"
     id="namedview3037"
     showgrid="true"
     inkscape:zoom="41.7193"
     inkscape:cx="4.7086291"
     inkscape:cy="8.5290457"
     inkscape:window-x="0"
     inkscape:window-y="0"
     inkscape:window-maximized="1"
     inkscape:current-layer="svg3009">
    <inkscape:grid
       type="xygrid"
       id="grid3053" />
  </sodipodi:namedview>
  <defs
     id="defs3011" />
  <path
     sodipodi:nodetypes="cccccccc"
     inkscape:connector-curvature="0"
     id="path3035"
     d="M 8,6 4.5,2.5 0.99999997,6 3,6 3,11 6,11 6,6 z"
     style="fill:#353535;fill-rule:evenodd;fill-opacity:1" />
  <path
     sodipodi:nodetypes="cccccccc"
     inkscape:connector-curvature="0"
     id="path3035-9"
     d="M 8.0000001,9.9999999 11.5,13.5 15,9.9999999 l -2,0 L 13,5 10,5 10,9.9999999 z"
     style="opacity:0.40000000000000002;fill:#353535;fill-rule:evenodd;fill-opacity:1" />
</svg>

<svg xmlns="http://www.w3.org/2000/svg" viewBox="0 0 16 16">
 <path d="m 8 6 -3.5 -3.5 -3.5 3.5 2 0 0 5 3 0 0 -5 z" style="fill:#353535;fill-opacity:1;fill-rule:evenodd"/>
 <path d="m 8 10 3.5 3.5 3.5 -3.5 l -2 0 l 0 -5 -3 0 0 5 z" style="fill:#353535;opacity:0.4;fill-opacity:1;fill-rule:evenodd"/>
</svg>
